X: 2041
T: La Modena.
%R: _
B: Henry Playford "Apollo's Banquet", London 1687 (5th Edition)
F: https://archive.org/details/apollosbanquetco01rugg
Z: 2017 John Chambers <jc:trillian.mit.edu>
N: The last bars of the 2nd & 3rd strains are probably not the correct length.
M: 3/2
L: 1/8
K: Bb
% - - - - - - - - - -
f |\
f3gfe d2e4 | f3edc B2e3f |\
d4c2 d2B3c | A3GF2 B2G3G |\
c2A2 B4 c3B/c/ | d3ec2 d=e=e3f |\
f8- f3 :|
|: c |\
c3BAG F2f3g | e4d2 b2a3b |\
c'2^f2g2 a2a3g | g3fe2 d2c3B |\
A2f4 g2c3B | B4 ::\
!segno!B3cd2 e2c3B | A2f4 g2c3B | HB4 |]
% - - - - - - - - - -

%%sep 1 1 500
%%sep 1 1 500

